SVG_Azure_All/Performance Diagnostics.svg

<?xml version="1.0" encoding="UTF-8" standalone="no"?>
<!-- Generated by Microsoft Visio, SVG Export Performance Diagnostics.svg Page-1 -->

<svg
   xmlns:dc="http://purl.org/dc/elements/1.1/"
   xmlns:cc="http://creativecommons.org/ns#"
   xmlns:rdf="http://www.w3.org/1999/02/22-rdf-syntax-ns#"
   xmlns:svg="http://www.w3.org/2000/svg"
   xmlns="http://www.w3.org/2000/svg"
   xmlns:sodipodi="http://sodipodi.sourceforge.net/DTD/sodipodi-0.dtd"
   xmlns:inkscape="http://www.inkscape.org/namespaces/inkscape"
   width="0.80065095in"
   height="0.80075288in"
   viewBox="0 0 57.646727 57.6545"
   xml:space="preserve"
   class="st13"
   version="1.1"
   id="svg89"
   sodipodi:docname="Performance Diagnostics.svg"
   style="font-size:12px;overflow:visible;color-interpolation-filters:sRGB;fill:none;fill-rule:evenodd;stroke-linecap:square;stroke-miterlimit:3"
   inkscape:version="0.92.5 (2060ec1f9f, 2020-04-08)"><metadata
   id="metadata95"><rdf:RDF><cc:Work
       rdf:about=""><dc:format>image/svg+xml</dc:format><dc:type
         rdf:resource="http://purl.org/dc/dcmitype/StillImage" /></cc:Work></rdf:RDF></metadata><defs
   id="defs93" /><sodipodi:namedview
   pagecolor="#ffffff"
   bordercolor="#666666"
   borderopacity="1"
   objecttolerance="10"
   gridtolerance="10"
   guidetolerance="10"
   inkscape:pageopacity="0"
   inkscape:pageshadow="2"
   inkscape:window-width="640"
   inkscape:window-height="480"
   id="namedview91"
   showgrid="false"
   inkscape:zoom="1.7193066"
   inkscape:cx="38.430871"
   inkscape:cy="24.555477"
   inkscape:window-x="0"
   inkscape:window-y="0"
   inkscape:window-maximized="0"
   inkscape:current-layer="svg89" />
	<style
   type="text/css"
   id="style2">
	<![CDATA[
		.st1 {fill:#7a7a7a;stroke:none;stroke-linecap:butt;stroke-width:12.24}
		.st2 {fill:#a0a1a2;stroke:none;stroke-linecap:butt;stroke-width:12.24}
		.st3 {fill:#ffffff;fill-opacity:0.2;stroke:none;stroke-linecap:butt;stroke-width:12.24}
		.st4 {fill:#59b4d9;stroke:none;stroke-linecap:butt;stroke-width:12.24}
		.st5 {fill:#b8d432;stroke:none;stroke-linecap:butt;stroke-width:12.24}
		.st6 {fill:#ffffff;stroke:none;stroke-linecap:butt;stroke-width:12.24}
		.st7 {fill:#ffffff;fill-opacity:0.7;stroke:none;stroke-linecap:butt;stroke-width:12.24}
		.st8 {fill:#ffffff;fill-opacity:0.4;stroke:none;stroke-linecap:butt;stroke-width:12.24}
		.st9 {fill:#000000;stroke:none;stroke-linecap:butt;stroke-width:12.24}
		.st10 {fill:#000000;fill-opacity:0.4;stroke:none;stroke-linecap:butt;stroke-width:12.24}
		.st11 {fill:#000000;fill-opacity:0.2;stroke:none;stroke-linecap:butt;stroke-width:12.24}
		.st12 {fill:#57a300;stroke:none;stroke-linecap:butt;stroke-width:12.24}
		.st13 {fill:none;fill-rule:evenodd;font-size:12px;overflow:visible;stroke-linecap:square;stroke-miterlimit:3}
	]]>
	</style>

	<g
   id="g87"
   transform="translate(-12.240311,-12.2367)">
		<title
   id="title4">Page-1</title>
		<g
   id="group2311-1"
   transform="translate(12.24,-34.0157)">
			<title
   id="title6">Performance Diagnostics</title>
			<g
   id="group2312-2">
				<title
   id="title8">g64</title>
				<g
   id="shape2313-3"
   transform="translate(8.08859,-15.1046)">
					<title
   id="title10">path4</title>
					<path
   d="m 8.15,93.71 c 1.52,5.54 0.73,6.77 -8.15,6.77 v 2.47 h 30.03 v -2.47 c -8.88,0 -10.82,-1.23 -9.31,-6.77 z"
   class="st1"
   id="path12"
   inkscape:connector-curvature="0"
   style="fill:#7a7a7a;stroke:none;stroke-width:12.23999977;stroke-linecap:butt" />
				</g>
				<g
   id="shape2314-5"
   transform="translate(0,-24.3476)">
					<title
   id="title15">path6</title>
					<path
   d="M 2.79,70.6 C 1.41,70.6 0,71.79 0,73.12 v 27.33 c 0,1.32 1.4,2.5 2.79,2.5 H 43.7 c 1.39,0 2.51,-1.18 2.51,-2.5 V 73.12 c 0,-1.33 -1.12,-2.52 -2.51,-2.52 z"
   class="st2"
   id="path17"
   inkscape:connector-curvature="0"
   style="fill:#a0a1a2;stroke:none;stroke-width:12.23999977;stroke-linecap:butt" />
				</g>
				<g
   id="shape2315-7"
   transform="translate(0.00231037,-24.3465)">
					<title
   id="title20">path8</title>
					<path
   d="M 43.45,70.6 H 43.42 2.51 C 1.12,70.6 0,71.79 0,73.12 v 27.33 c 0,1.32 1.12,2.5 2.51,2.5 h 0.97 z"
   class="st3"
   id="path22"
   inkscape:connector-curvature="0"
   style="fill:#ffffff;fill-opacity:0.2;stroke:none;stroke-width:12.23999977;stroke-linecap:butt" />
				</g>
				<g
   id="shape2316-9"
   transform="translate(3.46786,-27.8122)">
					<title
   id="title25">path10</title>
					<rect
   x="0"
   y="77.5336"
   width="39.276199"
   height="25.4151"
   class="st4"
   id="rect27"
   style="fill:#59b4d9;stroke:none;stroke-width:12.23999977;stroke-linecap:butt" />
				</g>
				<g
   id="shape2317-11"
   transform="translate(8.08744,-15.1046)">
					<title
   id="title30">path12</title>
					<path
   d="m 0,100.64 h 30.03 v 2.31 H 0 Z"
   class="st2"
   id="path32"
   inkscape:connector-curvature="0"
   style="fill:#a0a1a2;stroke:none;stroke-width:12.23999977;stroke-linecap:butt" />
				</g>
				<g
   id="shape2318-13"
   transform="translate(22.6277,-54.1653)">
					<title
   id="title35">path14</title>
					<path
   d="m 0,102.31 a 0.646902,0.646929 0 0 1 0.656144,-0.64 0.646902,0.646929 0 0 1 0.654989,0.64 0.646902,0.646929 0 0 1 -0.654989,0.64 A 0.646902,0.646929 0 0 1 0,102.31 Z"
   class="st5"
   id="path37"
   inkscape:connector-curvature="0"
   style="fill:#b8d432;stroke:none;stroke-width:12.23999977;stroke-linecap:butt" />
				</g>
				<g
   id="shape2319-15"
   transform="translate(14.9818,-41.5594)">
					<title
   id="title40">path16</title>
					<path
   d="M 8.1,102.95 A 0.256451,0.256461 0 0 1 7.978706,102.9176 L 0.12,98.54 a 0.227571,0.22758 0 0 1 0,-0.39971 L 8.03,93.74 a 0.246054,0.246064 0 0 1 0.236813,0 L 16.13,98.11 a 0.232192,0.232201 0 0 1 0.118984,0.199855 C 16.25,98.39 16.2,98.47 16.13,98.51 l -7.91,4.41 a 0.25414,0.254151 0 0 1 -0.120139,0.0335 z"
   class="st6"
   id="path42"
   inkscape:connector-curvature="0"
   style="fill:#ffffff;stroke:none;stroke-width:12.23999977;stroke-linecap:butt" />
				</g>
				<g
   id="shape2320-17"
   transform="translate(24.2612,-30.4368)">
					<title
   id="title45">path18</title>
					<path
   d="M 0.23,102.95 A 0.231037,0.231046 0 0 1 0.001274,102.71549 L 0,93.81 C 0,93.72 0.05,93.65 0.11,93.6 l 7.63,-4.43 a 0.226416,0.226425 0 0 1 0.232192,0 0.229881,0.229891 0 0 1 0.117829,0.202165 L 8.09,98.28 c 0,0.08 -0.05,0.16 -0.12,0.2 l -7.62,4.44 a 0.219485,0.219494 0 0 1 -0.116673,0.0312 z"
   class="st7"
   id="path47"
   inkscape:connector-curvature="0"
   style="fill:#ffffff;fill-opacity:0.7;stroke:none;stroke-width:12.23999977;stroke-linecap:butt" />
				</g>
				<g
   id="shape2321-19"
   transform="translate(13.8645,-30.4368)">
					<title
   id="title50">path20</title>
					<path
   d="M 7.85,102.95 A 0.201002,0.20101 0 0 1 7.739102,102.9188 L 0.12,98.48 A 0.227571,0.22758 0 0 1 0.002171,98.277835 L 0,89.43 A 0.232192,0.232201 0 0 1 0.346555,89.227835 L 7.97,93.66 a 0.241433,0.241443 0 0 1 0.112053,0.202165 L 8.09,102.72 a 0.237968,0.237977 0 0 1 -0.112053,0.20216 0.25183,0.25184 0 0 1 -0.120139,0.0312 z"
   class="st8"
   id="path52"
   inkscape:connector-curvature="0"
   style="fill:#ffffff;fill-opacity:0.4;stroke:none;stroke-width:12.23999977;stroke-linecap:butt" />
				</g>
				<g
   id="shape2322-21"
   transform="translate(40.5204)">
					<title
   id="title55">path22</title>
					<path
   d="m 0,91.4 11.55,11.55 v 0 a 3.2667633,3.2669034 -180 0 0 4.62,-4.62 v 0 L 4.62,86.78 Z"
   class="st9"
   id="path57"
   inkscape:connector-curvature="0"
   style="fill:#000000;stroke:none;stroke-width:12.23999977;stroke-linecap:butt" />
				</g>
				<g
   id="shape2323-23"
   transform="translate(42.0336,-7.01802)">
					<title
   id="title60">path24</title>
					<path
   d="M 4.62,95.31 0,99.93 l 3.02,3.02 a 16.1841,16.1848 -180 0 0 4.62,-4.62 z"
   class="st10"
   id="path62"
   inkscape:connector-curvature="0"
   style="fill:#000000;fill-opacity:0.4;stroke:none;stroke-width:12.23999977;stroke-linecap:butt" />
				</g>
				<g
   id="shape2324-25"
   transform="translate(20.7956,-10.4837)">
					<title
   id="title65">circle26</title>
					<ellipse
   cx="12.707"
   cy="90.241096"
   rx="12.707"
   ry="12.7075"
   class="st6"
   id="ellipse67"
   style="fill:#ffffff;stroke:none;stroke-width:12.23999977;stroke-linecap:butt" />
				</g>
				<g
   id="shape2325-27"
   transform="translate(20.2065,-12.7942)">
					<title
   id="title70">path28</title>
					<path
   d="m 4.62,96.58 c 0,-7.51 5.23,-12.7 12.71,-12.7 2.32,0 4.49,0.63 6.36,1.72 C 21.49,81.81 17.4,79.25 12.71,79.25 5.69,79.25 0,84.94 0,91.96 c 0,4.7 2.55,8.79 6.34,10.99 A 12.6285,12.629 0 0 1 4.62,96.58 Z"
   class="st11"
   id="path72"
   inkscape:connector-curvature="0"
   style="fill:#000000;fill-opacity:0.2;stroke:none;stroke-width:12.23999977;stroke-linecap:butt" />
				</g>
				<g
   id="shape2326-29"
   transform="translate(17.4456,-7.13355)">
					<title
   id="title75">path30</title>
					<path
   d="M 16.06,70.83 C 7.19,70.83 0,78.02 0,86.89 c 0,8.87 7.19,16.06 16.06,16.06 8.87,0 16.05,-7.19 16.05,-16.06 0,-8.87 -7.18,-16.06 -16.05,-16.06 z m 0,27.96 c -6.57,0 -11.9,-5.33 -11.9,-11.9 0,-6.57 5.33,-11.9 11.9,-11.9 6.57,0 11.9,5.33 11.9,11.9 0,6.57 -5.33,11.9 -11.9,11.9 z"
   class="st9"
   id="path77"
   inkscape:connector-curvature="0"
   style="fill:#000000;stroke:none;stroke-width:12.23999977;stroke-linecap:butt" />
				</g>
				<g
   id="shape2327-31"
   transform="translate(25.4163,-17.4151)">
					<title
   id="title80">path32</title>
					<path
   d="m 0,93.71 h 3.47 v 9.24 H 0 Z m 5.78,2.31 h 3.46 v 6.93 H 5.78 Z m 5.77,-5.78 h 3.47 v 12.71 h -3.47 z"
   class="st12"
   id="path82"
   inkscape:connector-curvature="0"
   style="fill:#57a300;stroke:none;stroke-width:12.23999977;stroke-linecap:butt" />
				</g>
			</g>
		</g>
	</g>
</svg>

<?xml version="1.0" encoding="UTF-8" standalone="no"?>
<!DOCTYPE svg PUBLIC "-//W3C//DTD SVG 1.1//EN" "http://www.w3.org/Graphics/SVG/1.1/DTD/svg11.dtd">
<!-- Generated by Microsoft Visio, SVG Export Performance Diagnostics.svg Page-1 -->
<svg xmlns="http://www.w3.org/2000/svg" xmlns:xlink="http://www.w3.org/1999/xlink" xmlns:ev="http://www.w3.org/2001/xml-events"
		width="1.14065in" height="1.42984in" viewBox="0 0 82.1266 102.949" xml:space="preserve" color-interpolation-filters="sRGB"
		class="st13">
	<style type="text/css">
	<![CDATA[
		.st1 {fill:#7a7a7a;stroke:none;stroke-linecap:butt;stroke-width:12.24}
		.st2 {fill:#a0a1a2;stroke:none;stroke-linecap:butt;stroke-width:12.24}
		.st3 {fill:#ffffff;fill-opacity:0.2;stroke:none;stroke-linecap:butt;stroke-width:12.24}
		.st4 {fill:#59b4d9;stroke:none;stroke-linecap:butt;stroke-width:12.24}
		.st5 {fill:#b8d432;stroke:none;stroke-linecap:butt;stroke-width:12.24}
		.st6 {fill:#ffffff;stroke:none;stroke-linecap:butt;stroke-width:12.24}
		.st7 {fill:#ffffff;fill-opacity:0.7;stroke:none;stroke-linecap:butt;stroke-width:12.24}
		.st8 {fill:#ffffff;fill-opacity:0.4;stroke:none;stroke-linecap:butt;stroke-width:12.24}
		.st9 {fill:#000000;stroke:none;stroke-linecap:butt;stroke-width:12.24}
		.st10 {fill:#000000;fill-opacity:0.4;stroke:none;stroke-linecap:butt;stroke-width:12.24}
		.st11 {fill:#000000;fill-opacity:0.2;stroke:none;stroke-linecap:butt;stroke-width:12.24}
		.st12 {fill:#57a300;stroke:none;stroke-linecap:butt;stroke-width:12.24}
		.st13 {fill:none;fill-rule:evenodd;font-size:12px;overflow:visible;stroke-linecap:square;stroke-miterlimit:3}
	]]>
	</style>

	<g>
		<title>Page-1</title>
		<g id="group2296-1" transform="translate(12.24,-34.0157)">
			<title>Performance Diagnostics</title>
			<g id="group2297-2">
				<title>g64</title>
				<g id="shape2298-3" transform="translate(8.08859,-15.1046)">
					<title>path4</title>
					<path d="M8.15 93.71 C9.67 99.25 8.88 100.48 0 100.48 L0 102.95 L30.03 102.95 L30.03 100.48 C21.15 100.48 19.21
								 99.25 20.72 93.71 L8.15 93.71 Z" class="st1"/>
				</g>
				<g id="shape2299-5" transform="translate(0,-24.3476)">
					<title>path6</title>
					<path d="M2.79 70.6 C1.41 70.6 0 71.79 0 73.12 L0 100.45 C0 101.77 1.4 102.95 2.79 102.95 L43.7 102.95 C45.09
								 102.95 46.21 101.77 46.21 100.45 L46.21 73.12 C46.21 71.79 45.09 70.6 43.7 70.6 L2.79 70.6 Z"
							class="st2"/>
				</g>
				<g id="shape2300-7" transform="translate(0.00231037,-24.3465)">
					<title>path8</title>
					<path d="M43.45 70.6 L43.42 70.6 L2.51 70.6 C1.12 70.6 0 71.79 0 73.12 L0 100.45 C0 101.77 1.12 102.95 2.51 102.95
								 L3.48 102.95 L43.45 70.6 Z" class="st3"/>
				</g>
				<g id="shape2301-9" transform="translate(3.46786,-27.8122)">
					<title>path10</title>
					<rect x="0" y="77.5336" width="39.2762" height="25.4151" class="st4"/>
				</g>
				<g id="shape2302-11" transform="translate(8.08744,-15.1046)">
					<title>path12</title>
					<path d="M0 100.64 L30.03 100.64 L30.03 102.95 L0 102.95 L0 100.64 Z" class="st2"/>
				</g>
				<g id="shape2303-13" transform="translate(22.6277,-54.1653)">
					<title>path14</title>
					<path d="M0 102.31 a0.646902 0.646929 0 0 1 0.656144 -0.639997 a0.646902 0.646929 0 0 1 0.654989 0.639997 a0.646902
								 0.646929 0 0 1 -0.654989 0.639997 a0.646902 0.646929 0 0 1 -0.656144 -0.639997 Z" class="st5"/>
				</g>
				<g id="shape2304-15" transform="translate(14.9818,-41.5594)">
					<title>path16</title>
					<path d="M8.1 102.95 a0.256451 0.256461 0 0 1 -0.121294 -0.0323464 L0.12 98.54 a0.227571 0.22758 0 0 1 -4.1217E-15
								 -0.39971 L8.03 93.74 a0.246054 0.246064 0 0 1 0.236813 -1.42109E-14 L16.13 98.11 a0.232192 0.232201
								 0 0 1 0.118984 0.199855 C16.25 98.39 16.2 98.47 16.13 98.51 L8.22 102.92 a0.25414 0.254151 0 0 1
								 -0.120139 0.0335017 Z" class="st6"/>
				</g>
				<g id="shape2305-17" transform="translate(24.2612,-30.4368)">
					<title>path18</title>
					<path d="M0.23 102.95 a0.231037 0.231046 0 0 1 -0.228726 -0.234512 L0 93.81 C0 93.72 0.05 93.65 0.11 93.6 L7.74
								 89.17 a0.226416 0.226425 0 0 1 0.232192 0 a0.229881 0.229891 0 0 1 0.117829 0.202165 L8.09 98.28
								 C8.09 98.36 8.04 98.44 7.97 98.48 L0.35 102.92 a0.219485 0.219494 0 0 1 -0.116673 0.0311912 Z"
							class="st7"/>
				</g>
				<g id="shape2306-19" transform="translate(13.8645,-30.4368)">
					<title>path20</title>
					<path d="M7.85 102.95 a0.201002 0.20101 0 0 1 -0.110898 -0.0311912 L0.12 98.48 a0.227571 0.22758 0 0 1 -0.117829
								 -0.202165 L0 89.43 a0.232192 0.232201 0 0 1 0.346555 -0.202165 L7.97 93.66 a0.241433 0.241443 0
								 0 1 0.112053 0.202165 L8.09 102.72 a0.237968 0.237977 0 0 1 -0.112053 0.202165 a0.25183 0.25184
								 0 0 1 -0.120139 0.0311912 Z" class="st8"/>
				</g>
				<g id="shape2307-21" transform="translate(40.5204,-2.84217E-13)">
					<title>path22</title>
					<path d="M0 91.4 L11.55 102.95 L11.55 102.95 A3.26408 3.26422 -180 0 0 16.17 98.33 L16.17 98.33 L4.62 86.78 L0
								 91.4 Z" class="st9"/>
				</g>
				<g id="shape2308-23" transform="translate(42.0336,-7.01802)">
					<title>path24</title>
					<path d="M4.62 95.31 L0 99.93 L3.02 102.95 A16.1841 16.1848 -180 0 0 7.64 98.33 L4.62 95.31 Z" class="st10"/>
				</g>
				<g id="shape2309-25" transform="translate(20.7956,-10.4837)">
					<title>circle26</title>
					<ellipse cx="12.707" cy="90.2411" rx="12.707" ry="12.7075" class="st6"/>
				</g>
				<g id="shape2310-27" transform="translate(20.2065,-12.7942)">
					<title>path28</title>
					<path d="M4.62 96.58 C4.62 89.07 9.85 83.88 17.33 83.88 C19.65 83.88 21.82 84.51 23.69 85.6 C21.49 81.81 17.4
								 79.25 12.71 79.25 C5.69 79.25 0 84.94 0 91.96 C0 96.66 2.55 100.75 6.34 102.95 A12.6285 12.629 0
								 0 1 4.62 96.58 Z" class="st11"/>
				</g>
				<g id="shape2311-29" transform="translate(17.4456,-7.13355)">
					<title>path30</title>
					<path d="M16.06 70.83 C7.19 70.83 0 78.02 0 86.89 C0 95.76 7.19 102.95 16.06 102.95 C24.93 102.95 32.11 95.76
								 32.11 86.89 C32.11 78.02 24.93 70.83 16.06 70.83 ZM16.06 98.79 C9.49 98.79 4.16 93.46 4.16 86.89
								 C4.16 80.32 9.49 74.99 16.06 74.99 C22.63 74.99 27.96 80.32 27.96 86.89 C27.96 93.46 22.63 98.79
								 16.06 98.79 Z" class="st9"/>
				</g>
				<g id="shape2312-31" transform="translate(25.4163,-17.4151)">
					<title>path32</title>
					<path d="M0 93.71 L3.47 93.71 L3.47 102.95 L0 102.95 L0 93.71 ZM5.78 96.02 L9.24 96.02 L9.24 102.95 L5.78 102.95
								 L5.78 96.02 ZM11.55 90.24 L15.02 90.24 L15.02 102.95 L11.55 102.95 L11.55 90.24 Z" class="st12"/>
				</g>
			</g>
		</g>
	</g>
</svg>
